polaris-icons/icons/new-icons/PinUnfilledMajor.svg

<svg width="20" height="20" viewBox="0 0 20 20" fill="none" xmlns="http://www.w3.org/2000/svg">
<path fill-rule="evenodd" clip-rule="evenodd" d="M13.4841 9.67861C14.7148 10.2288 15.5 11.0644 15.5 12C15.5 13.5181 13.4328 14.7728 10.75 14.9723V16.75C10.75 17.1642 10.4142 17.5 10 17.5C9.58579 17.5 9.25 17.1642 9.25 16.75V14.9723C6.56724 14.7728 4.5 13.5181 4.5 12C4.5 11.0644 5.28524 10.2288 6.51587 9.6786L7.06673 7.19973C6.40473 6.75368 6 6.15638 6 5.5C6 4.11929 7.79086 3 10 3C12.2091 3 14 4.11929 14 5.5C14 6.15638 13.5953 6.75368 12.9333 7.19973L13.4841 9.67861ZM11.5323 7.81L12.1835 10.7402L12.8719 11.048C13.3493 11.2614 13.6589 11.4957 13.8315 11.6903C13.9962 11.8759 14 11.9781 14 12C14 12.0222 13.9628 12.3725 13.1708 12.8045C12.4355 13.2055 11.3173 13.5 10 13.5C8.68274 13.5 7.56448 13.2055 6.82919 12.8045C6.03718 12.3725 6 12.0222 6 12C6 11.9781 6.00375 11.8759 6.16846 11.6903C6.34111 11.4957 6.65074 11.2614 7.12807 11.048L7.81655 10.7402L8.4677 7.81C8.93964 7.93243 9.45719 8 10 8C10.5428 8 11.0604 7.93243 11.5323 7.81ZM12.2313 5.85486C12.1915 5.88744 12.1463 5.92125 12.0951 5.95576L12.0909 5.95857C12.0725 5.9709 12.0534 5.98331 12.0334 5.99577C11.5834 6.27702 10.8684 6.5 10 6.5C9.13159 6.5 8.41657 6.27702 7.96657 5.99577C7.94663 5.98331 7.92746 5.97089 7.90906 5.95856L7.90491 5.95576C7.85368 5.92125 7.80847 5.88744 7.76868 5.85486C7.69839 5.79729 7.64471 5.74327 7.60471 5.69567C7.5813 5.66781 7.56268 5.64226 7.54818 5.61963C7.53633 5.60113 7.5274 5.58496 7.52066 5.57097C7.50257 5.53344 7.50032 5.51164 7.50004 5.50276C7.5 5.50149 7.5 5.50049 7.5 5.49974C7.49999 5.49194 7.49995 5.45131 7.55661 5.36758C7.61911 5.27523 7.74456 5.14299 7.96657 5.00423C8.41657 4.72298 9.13159 4.5 10 4.5C10.8684 4.5 11.5834 4.72298 12.0334 5.00423C12.2554 5.14299 12.3809 5.27523 12.4434 5.36758C12.4505 5.37805 12.4567 5.38785 12.4621 5.397C12.4986 5.45857 12.5 5.49076 12.5 5.49923C12.5 5.49896 12.5 5.49957 12.5 5.49923C12.5 5.49946 12.5 5.50063 12.5 5.50092C12.5 5.50803 12.4992 5.53069 12.4783 5.57314C12.4717 5.5866 12.4631 5.60205 12.4518 5.61963C12.4127 5.68071 12.3436 5.76292 12.2313 5.85486Z" fill="#4A4A4A"/>
</svg>

<svg viewBox="0 0 20 20" xmlns="http://www.w3.org/2000/svg"><path fill-rule="evenodd" d="M13.484 9.679c1.23.55 2.016 1.385 2.016 2.321 0 1.518-2.067 2.773-4.75 2.972v1.778a.75.75 0 0 1-1.5 0v-1.778c-2.683-.2-4.75-1.454-4.75-2.972 0-.936.785-1.771 2.016-2.321l.55-2.48c-.661-.445-1.066-1.043-1.066-1.699 0-1.38 1.79-2.5 4-2.5s4 1.12 4 2.5c0 .656-.405 1.254-1.067 1.7l.551 2.479Zm-1.952-1.869.652 2.93.688.308c.477.213.787.448.96.642.164.186.168.288.168.31 0 .022-.037.373-.83.805-.735.4-1.853.695-3.17.695s-2.436-.294-3.17-.695c-.793-.432-.83-.783-.83-.805 0-.022.004-.124.168-.31.173-.194.483-.429.96-.642l.689-.308.65-2.93c.473.122.99.19 1.533.19.543 0 1.06-.068 1.532-.19Zm.7-1.955c-.04.032-.086.066-.137.1l-.004.004a2.057 2.057 0 0 1-.058.037c-.45.281-1.165.504-2.033.504-.868 0-1.583-.223-2.033-.504a2.15 2.15 0 0 1-.058-.037l-.004-.003a1.82 1.82 0 0 1-.136-.101 1.24 1.24 0 0 1-.164-.16.74.74 0 0 1-.084-.124.173.173 0 0 1-.021-.068v-.003c0-.008 0-.049.057-.132.062-.093.188-.225.41-.364.45-.281 1.165-.504 2.033-.504.868 0 1.583.223 2.033.504a1.363 1.363 0 0 1 .43.393c.036.062.037.094.037.102v.002c0 .007 0 .03-.022.072a.464.464 0 0 1-.026.047c-.04.06-.108.143-.22.235Z" fill="#5C5F62"/></svg>
